assets/images/Header/Links/invite.svg

<svg width="32" height="32" viewBox="0 0 32 32" fill="none" xmlns="http://www.w3.org/2000/svg">
<path fill-rule="evenodd" clip-rule="evenodd" d="M15.6667 2.66667C8.49846 2.66667 2.66666 8.49824 2.66666 15.666C2.66666 22.8338 8.49846 28.6653 15.6667 28.6653C22.8349 28.6653 28.6667 22.8338 28.6667 15.666C28.6667 8.49824 22.8349 2.66667 15.6667 2.66667ZM15.6667 26.3018C9.80177 26.3018 5.03029 21.5306 5.03029 15.666C5.03029 9.80147 9.80177 5.03031 15.6667 5.03031C21.5315 5.03031 26.303 9.80147 26.303 15.666C26.303 21.5307 21.5315 26.3018 15.6667 26.3018ZM15.6667 12.9091C15.014 12.9091 14.4848 13.4382 14.4848 14.0909V21.9684C14.4848 22.621 15.014 23.1502 15.6667 23.1502C16.3193 23.1502 16.8485 22.621 16.8485 21.9684V14.0909C16.8485 13.4383 16.3193 12.9091 15.6667 12.9091ZM14.8307 8.52794C15.0512 8.30812 15.3554 8.18206 15.6667 8.18206C15.9779 8.18206 16.282 8.30804 16.5025 8.52794C16.7223 8.74776 16.8485 9.05267 16.8485 9.36388C16.8485 9.67509 16.7223 9.97921 16.5025 10.1998C16.282 10.4196 15.9779 10.5457 15.6667 10.5457C15.3554 10.5457 15.0505 10.4196 14.8307 10.1998C14.6109 9.97921 14.4848 9.67509 14.4848 9.36388C14.4848 9.05267 14.6109 8.74776 14.8307 8.52794Z" fill="#565656"/>
</svg>

<svg xmlns="http://www.w3.org/2000/svg" width="32" height="32" fill="none" viewBox="0 0 32 32"><path fill="#565656" fill-rule="evenodd" d="M15.667 2.667c-7.169 0-13 5.831-13 12.999s5.831 13 13 13c7.168 0 13-5.832 13-13s-5.832-13-13-13zm0 23.635c-5.865 0-10.637-4.771-10.637-10.636C5.03 9.801 9.802 5.03 15.667 5.03s10.636 4.771 10.636 10.636c0 5.865-4.771 10.636-10.636 10.636zm0-13.393c-.653 0-1.182.53-1.182 1.182v7.877a1.182 1.182 0 0 0 2.364 0v-7.877c0-.653-.53-1.182-1.182-1.182zm-.836-4.381c.22-.22.524-.346.836-.346.31 0 .615.126.836.346.22.22.346.525.346.836 0 .311-.127.615-.346.836-.221.22-.525.346-.836.346a1.19 1.19 0 0 1-.836-.346 1.192 1.192 0 0 1-.346-.836c0-.311.126-.616.346-.836z" clip-rule="evenodd"/></svg>
